X:729
T:Reel 729
M:4/4
K:Amix
L:1/8
ED|C>A, (3A,A,A, A,B,A,G,|E,A,A,B, A,AAGFE|D>B, (3G,G,G, B,G,G,B,|C>B, (3G,G,G, B,>D (3DCB, |C>A, (3A,G,A, E,>A, (3A,G,A, |CA,A,B, C2CA,|B,G,GA, B,CDB,| (3A,B,A, B,G, A,2|CD|EAAG AGAG|EAAG AGEF|EDGF G2GA| (3GFE DC B,A,G,2|EAAG ABAG|EDEF G2FG|AFGE DB,G,B,|A,CB,G, A,2|
